packages/bezier-icons/icons/heart-filled.svg

<svg width="24" height="24" viewBox="0 0 24 24" fill="none" xmlns="http://www.w3.org/2000/svg">
<path fill-rule="evenodd" clip-rule="evenodd" d="M20.3351 4.96665C19.9291 4.56065 19.3961 4.23565 18.8191 3.97465C16.4261 2.89265 13.2961 3.68065 12.0001 6.13265C10.7031 3.68065 7.5731 2.89265 5.1811 3.97465C4.6041 4.23565 4.0711 4.56065 3.6651 4.96665C1.5121 7.11965 1.4601 10.3947 3.4321 12.7647C5.5551 15.3157 9.1511 18.6707 11.3351 20.6427C11.7151 20.9867 12.2841 20.9867 12.6651 20.6427C14.8491 18.6707 18.4451 15.3157 20.5681 12.7647C22.5391 10.3947 22.4881 7.11965 20.3351 4.96665Z" fill="#313234"/>
</svg>

<svg xmlns="http://www.w3.org/2000/svg" width="24" height="24" fill="none" viewBox="0 0 24 24"><path fill="#313234" fill-rule="evenodd" d="M20.335 4.967c-.406-.406-.939-.731-1.516-.992C16.426 2.893 13.296 3.68 12 6.133c-1.297-2.452-4.427-3.24-6.819-2.158-.577.26-1.11.586-1.516.992-2.153 2.153-2.205 5.428-.233 7.798 2.123 2.55 5.72 5.906 7.903 7.878a.986.986 0 0 0 1.33 0c2.184-1.972 5.78-5.327 7.903-7.878 1.971-2.37 1.92-5.645-.233-7.798" clip-rule="evenodd"/></svg>
